X: 40886
T: Tricia Shannon
R: reel
M: 4/4
K: Dmajor
AD~D2 ADBD|ADFA BAGF|G3B dedB|GBdg bgdB|
AF~F2 AFEF|DF~F2 ABdB|G3A BcdB|1 AFEF D2dB:|2 AFEF D2AB||
d2dB AF~F2|dedB AFFA|eAfA gAfA|(3efe (3dcB (3ABA (3GFE|
DddB AF~F2|d2 dB ADFA|~G3A BcdB|1 AFEF D3c:|2 AFEF D2dB||

